X:185
T: Die Mordeltern
N: Q0085a
O: Mitteleuropa, Deutschland (BRD) , Hessen, Kurhessen
R: Ballade, Habgier, Mord, Reue, Selbstmord
M: 3/4
L: 1/8
K: G
D2 | GDB,3D | GDB,3
G | FGA2G2 | FED3
D | DAA3D | GBB3
D | DcBABA | G2F2 | G4

@@@ Tune index: 1240
